X: 624
T:Elizabeth Kelly's Delight
M:9/8
L:1/8
R:slip jig
N:Posted to the woodenflute mailing list January 2003
Z:Rachel  Marsh
K:ADor
~A3 ABA AGE|A2E G2E DEG|~A3 BAG AGE|1 ~G3 ~G2E DEG:|2 ~G3 ~G2E GAB||
|:c2A BAG A2B|c2A BGE DEG|c2A BAG AGE|1 ~G3 ~G2E GAB:|2 ~G3 ~G2E DEG||

